2/svg/1f4f6.svg

<?xml version="1.0" encoding="UTF-8" standalone="no"?><svg xmlns:dc="http://purl.org/dc/elements/1.1/" xmlns:cc="http://creativecommons.org/ns#" xmlns:rdf="http://www.w3.org/1999/02/22-rdf-syntax-ns#" xmlns:svg="http://www.w3.org/2000/svg" xmlns="http://www.w3.org/2000/svg" viewBox="0 0 45 45" style="enable-background:new 0 0 45 45;" xml:space="preserve" version="1.1" id="svg2"><metadata id="metadata8"><rdf:RDF><cc:Work rdf:about=""><dc:format>image/svg+xml</dc:format><dc:type rdf:resource="http://purl.org/dc/dcmitype/StillImage"/></cc:Work></rdf:RDF></metadata><defs id="defs6"><clipPath id="clipPath16" clipPathUnits="userSpaceOnUse"><path id="path18" d="M 0,36 36,36 36,0 0,0 0,36 Z"/></clipPath></defs><g transform="matrix(1.25,0,0,-1.25,0,45)" id="g10"><g id="g12"><g clip-path="url(#clipPath16)" id="g14"><g transform="translate(0,32)" id="g20"><path id="path22" style="fill:#3b88c3;fill-opacity:1;fill-rule:nonzero;stroke:none" d="m 0,0 c 0,4 4,4 4,4 l 28,0 c 0,0 4,0 4,-4 l 0,-28 c 0,0 0,-4 -4,-4 l -28,0 c 0,0 -4,0 -4,4 L 0,0 Z"/></g><path id="path24" style="fill:#ffffff;fill-opacity:1;fill-rule:nonzero;stroke:none" d="m 32,28 -4,0 0,-20 4,0 0,20 z"/><path id="path26" style="fill:#ffffff;fill-opacity:1;fill-rule:nonzero;stroke:none" d="m 26,24 -4,0 0,-16 4,0 0,16 z"/><path id="path28" style="fill:#ffffff;fill-opacity:1;fill-rule:nonzero;stroke:none" d="m 20,20 -4,0 0,-12 4,0 0,12 z"/><path id="path30" style="fill:#ffffff;fill-opacity:1;fill-rule:nonzero;stroke:none" d="m 14,16 -4,0 0,-8 4,0 0,8 z"/><path id="path32" style="fill:#ffffff;fill-opacity:1;fill-rule:nonzero;stroke:none" d="M 8,12 4,12 4,8 8,8 8,12 Z"/></g></g></g></svg>

<svg xmlns="http://www.w3.org/2000/svg" viewBox="0 0 45 45" enable-background="new 0 0 45 45"><defs><clipPath id="a"><path d="M0 36h36V0H0v36z"/></clipPath></defs><g><g><g clip-path="url(#a)" transform="matrix(1.25 0 0 -1.25 0 45)"><g><path fill="#3b88c3" d="M0 32c0 4 4 4 4 4h28s4 0 4-4V4s0-4-4-4H4S0 0 0 4v28z"/></g><path fill="#fff" d="M32 28h-4V8h4v20z"/><path fill="#fff" d="M26 24h-4V8h4v16z"/><path fill="#fff" d="M20 20h-4V8h4v12z"/><path fill="#fff" d="M14 16h-4V8h4v8z"/><path fill="#fff" d="M8 12H4V8h4v4z"/></g></g></g></svg>
